X: 1
T: Vals fr\aan J\"arna
O: trad Sweden
Z: 2004 John Chambers <jc:trillian.mit.edu>
R: waltz
M: 3/4
L: 1/8
Z: Contributed 20040727182619 by John Chambers jc:trillian.mit.edu
K: A
e2 \
| ea ae Ac | e2 ef e2 | ea ae Ac | e4 e2 \
| ea ae Ac | e2 f<e f<e | ea ae Ac e4 |][K:Ador]
|: g2 \
| gf d2 d2 | f4 e/d/c/B/ | A2 AB cd | e>f ec AG \
| A2 A2 AB | c>d cB AG | Bc/B/ A4 | A4 :|
